assets/Person raising hand/Medium-Dark/Flat/person_raising_hand_flat_medium-dark.svg

<svg width="32" height="32" viewBox="0 0 32 32" fill="none" xmlns="http://www.w3.org/2000/svg">
<path d="M9.46733 10.9583C9.74256 10.3875 10.0842 9.86266 10.5113 9.3839C11.1377 8.70258 11.7071 8.21461 11.7166 8.20541C12.0583 7.91999 12.0962 7.41361 11.802 7.07295C11.5078 6.7415 10.9858 6.70467 10.6442 6.99009C10.6157 7.01771 10.2645 7.31233 9.80899 7.76347C9.74256 7.82792 9.62867 7.78189 9.63816 7.69902C9.79001 6.18908 9.92288 5.07504 10.0273 4.28324C10.0747 3.88734 9.89441 3.49144 9.49581 3.39016C9.0972 3.28889 8.68911 3.51906 8.57522 3.90575C8.57522 3.94258 8.4993 4.78042 8.32846 5.79318C8.30948 5.90366 8.2905 6.02336 8.28101 6.13384C8.27152 6.16146 8.24305 6.18908 8.20509 6.17987C8.17661 6.17067 8.15763 6.14305 8.16712 6.12463C8.26203 4.69755 8.37592 3.39937 8.37592 3.37175C8.45184 2.97585 8.1956 2.58916 7.7875 2.5155C7.37941 2.43264 6.9808 2.69043 6.90488 3.08633C6.8859 3.14158 6.81946 4.50421 6.69608 5.6827C6.69608 5.71032 6.64863 5.71032 6.64863 5.6827L6.60118 3.87813C6.57271 3.47303 6.23105 3.1692 5.82295 3.18761C5.39588 3.20602 5.0732 3.5651 5.10167 3.9702L5.22504 5.95891C5.22504 6.01415 5.13963 6.02336 5.13963 5.96811C5.05421 5.38807 4.99727 4.98297 4.99727 4.97376C4.94033 4.57786 4.5607 4.29245 4.14312 4.34769C3.73502 4.40293 3.45031 4.77121 3.50725 5.16711C3.754 6.92564 4.15261 9.79821 4.18108 10.1665C4.18108 10.1849 4.18108 10.1941 4.19057 10.2033C4.27599 10.7926 4.57019 11.3542 5.05421 11.7869C6.1741 12.7905 7.93935 12.726 8.98331 11.6488C9.18262 11.4463 9.34396 11.2069 9.46733 10.9583Z" fill="#966661"/>
<path d="M9 14H5V12.4217C5 12.1807 5.15385 12 5.33654 12H8.65385C8.84615 12 8.99038 12.1928 8.99038 12.4217V14H9Z" fill="#F95725"/>
<path d="M21.5 21C24 21 29 24.5 29 30H11V26.5C11 26.2233 10.8299 25.9672 10.5843 25.8749L7.5 24.5C5 23.5 4 21 4 19.302V14.0145C4 13.4509 4.42517 13 4.93537 13L9.06463 13C9.58428 13 10 13.4611 10 14.0145V18C10 19.302 11 19.5 11 19.5L17 21H21.5Z" fill="#FF6723"/>
<path d="M19.5 24C18.1197 24 17 23.0146 17 21.7998V19.2002C17 17.9854 18.1197 17 19.5 17C20.8803 17 22 17.9854 22 19.2002V21.7998C22 23.0146 20.8803 24 19.5 24Z" fill="#8B5C56"/>
<path d="M26.8784 7.63797C26.5286 7.02217 25.9739 6.59957 25.3588 6.38223C24.6835 6.15281 24.0925 5.71813 23.7307 5.10234C23.2242 4.29335 22.3318 3.75 21.3187 3.75C20.9328 3.75 20.559 3.83452 20.2213 3.97941C19.763 4.17261 19.2444 4.17261 18.7861 3.97941C18.4364 3.83452 18.0746 3.75 17.6766 3.75C16.6756 3.75 15.7953 4.2692 15.3008 5.06611C14.9149 5.68191 14.324 6.14074 13.6365 6.38223C12.9853 6.59957 12.4185 7.07047 12.0687 7.72249C11.5743 8.67637 11.6708 9.79929 12.2496 10.6445C12.451 10.941 12.571 11.2958 12.5751 11.663V16.6093C12.5751 17.6597 13.2143 18.6015 14.1912 19C15.109 19 20.8896 18.9518 24.8884 18.9518C25.8049 18.5413 26.42 17.6236 26.42 16.5973V13.5182L26.4201 11.7071C26.4201 11.3327 26.5286 10.9705 26.7457 10.6687C27.3487 9.77514 27.4331 8.60392 26.8784 7.63797Z" fill="#2D242D"/>
<path d="M16 14C16 15.1046 15.1046 16 14 16C12.8954 16 12 15.1046 12 14C12 12.8954 12.8954 12 14 12C15.1046 12 16 12.8954 16 14Z" fill="#8B5C56"/>
<path d="M27 14C27 15.1046 26.1046 16 25 16C23.8954 16 23 15.1046 23 14C23 12.8954 23.8954 12 25 12C26.1046 12 27 12.8954 27 14Z" fill="#8B5C56"/>
<path d="M17.409 7C15.1585 7 13.25 8.8232 13.25 11.0747V12.0658L13.4754 17.4308C13.7981 19.7682 15.834 21.5 18.2423 21.5H20.5513C22.9597 21.5 25.008 19.7561 25.3183 17.4308L25.6785 12.0556L25.6757 12.0551L25.7474 10.9462C25.7999 10.0476 25.0534 9.28818 24.1238 9.25147H22.4115C21.2495 9.25147 20.1854 8.57848 19.7084 7.51392C19.5861 7.19578 19.2926 7 18.9623 7H17.409Z" fill="#966661"/>
<path d="M19.1092 13.3428L18.529 15.4058C18.4039 15.8258 18.6997 16.2582 19.1092 16.2582H19.9853C20.3949 16.2582 20.6907 15.8258 20.5655 15.4058L19.9739 13.3428C19.8374 12.8857 19.2458 12.8857 19.1092 13.3428Z" fill="#75443E"/>
<path d="M19.498 17.9561C18.8632 17.9561 18.2891 17.7413 17.8627 17.517C17.7099 17.4367 17.5474 17.6588 17.6656 17.7984C18.1029 18.3148 18.5625 18.8964 19.498 18.8964C20.4336 18.8964 20.9176 18.382 21.3385 17.8762C21.4567 17.7341 21.2634 17.4947 21.1082 17.5729C20.7004 17.7782 20.153 17.9561 19.498 17.9561Z" fill="#990838"/>
<path d="M17.857 14.0057C18.1778 14.0057 18.4399 13.7289 18.3181 13.4322C18.0526 12.7855 17.4166 12.33 16.6743 12.33C15.9319 12.33 15.2959 12.7855 15.0304 13.4322C14.9086 13.7289 15.1708 14.0057 15.4915 14.0057H17.857Z" fill="white"/>
<path d="M21.1221 14.0057C20.8014 14.0057 20.5393 13.7289 20.661 13.4322C20.9265 12.7855 21.5625 12.33 22.3049 12.33C23.0472 12.33 23.6833 12.7855 23.9487 13.4322C24.0705 13.7289 23.8084 14.0057 23.4877 14.0057H21.1221Z" fill="white"/>
<path d="M15.8364 13.7263C15.8364 13.8228 15.8486 13.9164 15.8716 14.0056H17.857C17.9225 14.0056 17.9854 13.9941 18.0432 13.9732C18.0611 13.8938 18.0706 13.8112 18.0706 13.7263C18.0706 13.1094 17.5705 12.6093 16.9535 12.6093C16.3366 12.6093 15.8364 13.1094 15.8364 13.7263Z" fill="#7D4533"/>
<path d="M23.1426 13.7263C23.1426 13.8228 23.1304 13.9164 23.1074 14.0056H21.1221C21.0566 14.0056 20.9936 13.9941 20.9358 13.9732C20.9179 13.8938 20.9084 13.8112 20.9084 13.7263C20.9084 13.1094 21.4086 12.6093 22.0255 12.6093C22.6425 12.6093 23.1426 13.1094 23.1426 13.7263Z" fill="#7D4533"/>
<path d="M16.2833 13.7406C16.2833 13.8275 16.2998 13.9105 16.3299 13.987H17.6331C17.6632 13.9105 17.6797 13.8275 17.6797 13.7406C17.6797 13.3626 17.3671 13.0561 16.9815 13.0561C16.5959 13.0561 16.2833 13.3626 16.2833 13.7406Z" fill="black"/>
<path d="M22.6958 13.7543C22.6958 13.8429 22.6793 13.9276 22.6492 14.0056H21.346C21.3159 13.9276 21.2994 13.8429 21.2994 13.7543C21.2994 13.3687 21.612 13.0561 21.9976 13.0561C22.3832 13.0561 22.6958 13.3687 22.6958 13.7543Z" fill="black"/>
<path d="M16.9536 13.1678C16.9536 13.3221 16.8286 13.4471 16.6744 13.4471C16.5201 13.4471 16.3951 13.3221 16.3951 13.1678C16.3951 13.0136 16.5201 12.8885 16.6744 12.8885C16.8286 12.8885 16.9536 13.0136 16.9536 13.1678Z" fill="white"/>
<path d="M22.0256 13.1678C22.0256 13.3221 22.1507 13.4471 22.3049 13.4471C22.4591 13.4471 22.5842 13.3221 22.5842 13.1678C22.5842 13.0136 22.4591 12.8885 22.3049 12.8885C22.1507 12.8885 22.0256 13.0136 22.0256 13.1678Z" fill="white"/>
<path d="M15.6506 11.6341C15.763 11.5234 15.9802 11.3901 16.2799 11.2844C16.5746 11.1805 16.9282 11.1109 17.2981 11.1109C17.4668 11.1109 17.6036 10.9742 17.6036 10.8055C17.6036 10.6368 17.4668 10.5 17.2981 10.5C16.8542 10.5 16.432 10.5831 16.0768 10.7083C15.7267 10.8317 15.4199 11.0039 15.222 11.1987C15.1018 11.3171 15.1003 11.5105 15.2186 11.6307C15.337 11.7509 15.5304 11.7524 15.6506 11.6341Z" fill="#372128"/>
<path d="M23.1348 11.6341C23.0224 11.5234 22.8052 11.3901 22.5055 11.2844C22.2108 11.1805 21.8572 11.1109 21.4873 11.1109C21.3186 11.1109 21.1818 10.9742 21.1818 10.8055C21.1818 10.6368 21.3186 10.5 21.4873 10.5C21.9313 10.5 22.3534 10.5831 22.7086 10.7083C23.0587 10.8317 23.3655 11.0039 23.5634 11.1987C23.6836 11.3171 23.6851 11.5105 23.5668 11.6307C23.4484 11.7509 23.255 11.7524 23.1348 11.6341Z" fill="#372128"/>
</svg>

<svg xmlns="http://www.w3.org/2000/svg" width="32" height="32" fill="none"><path fill="#966661" d="M9.467 10.958a6.737 6.737 0 0 1 1.044-1.574c.627-.681 1.196-1.17 1.206-1.179a.793.793 0 0 0 .085-1.132.842.842 0 0 0-1.158-.083c-.028.028-.38.322-.835.773-.066.065-.18.019-.17-.064.151-1.51.284-2.624.388-3.416.048-.396-.133-.792-.531-.893a.763.763 0 0 0-.92.516c0 .037-.077.874-.248 1.887-.019.11-.037.23-.047.34-.01.028-.038.056-.076.047-.028-.01-.047-.037-.038-.055.095-1.427.209-2.726.209-2.753a.728.728 0 0 0-.588-.857.741.741 0 0 0-.883.571c-.02.056-.086 1.418-.209 2.597 0 .027-.047.027-.047 0L6.6 3.878a.741.741 0 0 0-.778-.69.744.744 0 0 0-.721.782l.123 1.989c0 .055-.085.064-.085.01-.086-.58-.143-.986-.143-.995a.756.756 0 0 0-.854-.626.73.73 0 0 0-.636.82c.247 1.758.646 4.63.674 4.998 0 .019 0 .028.01.037.085.59.38 1.151.863 1.584 1.12 1.003 2.885.939 3.93-.138.199-.203.36-.442.483-.69Z"/><path fill="#F95725" d="M9 14H5v-1.578c0-.241.154-.422.337-.422h3.317c.192 0 .336.193.336.422V14H9Z"/><path fill="#FF6723" d="M21.5 21c2.5 0 7.5 3.5 7.5 9H11v-3.5a.67.67 0 0 0-.416-.625L7.5 24.5C5 23.5 4 21 4 19.302v-5.287C4 13.45 4.425 13 4.935 13h4.13c.52 0 .935.461.935 1.014V18c0 1.302 1 1.5 1 1.5l6 1.5h4.5Z"/><path fill="#8B5C56" d="M19.5 24c-1.38 0-2.5-.985-2.5-2.2v-2.6c0-1.215 1.12-2.2 2.5-2.2s2.5.985 2.5 2.2v2.6c0 1.215-1.12 2.2-2.5 2.2Z"/><path fill="#2D242D" d="M26.878 7.638a2.809 2.809 0 0 0-1.52-1.256c-.675-.23-1.265-.664-1.627-1.28a2.852 2.852 0 0 0-2.412-1.352c-.386 0-.76.085-1.098.23a1.85 1.85 0 0 1-1.435 0 2.85 2.85 0 0 0-1.11-.23c-1 0-1.88.52-2.375 1.316a3.212 3.212 0 0 1-1.665 1.316 2.792 2.792 0 0 0-1.567 1.34 2.852 2.852 0 0 0 .18 2.923c.202.296.322.65.326 1.018v4.946c0 1.05.64 1.992 1.616 2.391.918 0 6.699-.048 10.697-.048a2.589 2.589 0 0 0 1.532-2.355v-4.889c0-.375.109-.738.326-1.04.603-.893.687-2.064.132-3.03Z"/><path fill="#8B5C56" d="M16 14a2 2 0 1 1-4 0 2 2 0 0 1 4 0ZM27 14a2 2 0 1 1-4 0 2 2 0 0 1 4 0Z"/><path fill="#966661" d="M17.409 7c-2.25 0-4.159 1.823-4.159 4.075v.99l.225 5.366c.323 2.337 2.359 4.069 4.767 4.069h2.31c2.408 0 4.456-1.744 4.766-4.07l.36-5.374h-.002l.071-1.11c.053-.898-.694-1.658-1.623-1.695h-1.712a2.956 2.956 0 0 1-2.704-1.737.791.791 0 0 0-.746-.514H17.41Z"/><path fill="#75443E" d="m19.11 13.343-.581 2.063c-.125.42.17.852.58.852h.876c.41 0 .706-.432.58-.852l-.591-2.063a.444.444 0 0 0-.865 0Z"/><path fill="#990838" d="M19.498 17.956c-.635 0-1.209-.215-1.635-.439-.153-.08-.316.142-.197.281.437.517.896 1.098 1.832 1.098s1.42-.514 1.84-1.02c.119-.142-.075-.381-.23-.303a3.576 3.576 0 0 1-1.61.383Z"/><path fill="#fff" d="M17.857 14.006c.32 0 .583-.277.461-.574a1.777 1.777 0 0 0-3.288 0c-.121.297.14.574.462.574h2.365ZM21.122 14.006c-.32 0-.583-.277-.461-.574a1.777 1.777 0 0 1 3.288 0c.121.297-.14.574-.461.574h-2.366Z"/><path fill="#7D4533" d="M15.836 13.726c0 .097.013.19.036.28h1.985a.547.547 0 0 0 .186-.033 1.117 1.117 0 1 0-2.207-.247ZM23.143 13.726c0 .097-.013.19-.036.28h-1.985a.548.548 0 0 1-.186-.033 1.117 1.117 0 1 1 2.207-.247Z"/><path fill="#000" d="M16.283 13.74c0 .088.017.17.047.247h1.303a.671.671 0 0 0 .047-.246.691.691 0 0 0-.698-.685.691.691 0 0 0-.699.685ZM22.696 13.754a.696.696 0 0 1-.047.252h-1.303a.698.698 0 1 1 1.35-.251Z"/><path fill="#fff" d="M16.954 13.168a.28.28 0 1 1-.559 0 .28.28 0 0 1 .559 0ZM22.026 13.168a.28.28 0 1 0 .558 0 .28.28 0 0 0-.558 0Z"/><path fill="#372128" d="M15.65 11.634c.113-.11.33-.244.63-.35a3.107 3.107 0 0 1 1.018-.173.305.305 0 1 0 0-.611c-.444 0-.866.083-1.221.208-.35.124-.657.296-.855.49a.306.306 0 0 0 .429.436ZM23.135 11.634c-.113-.11-.33-.244-.63-.35a3.107 3.107 0 0 0-1.018-.173.305.305 0 1 1 0-.611c.444 0 .866.083 1.222.208.35.124.657.296.854.49a.306.306 0 0 1-.428.436Z"/></svg>
